X: 6942
T: Cheshire Round
R: three-two
M: 3/2
K: Cmajor
|:c2BA GAGE D4|B2d2 d2A2 B2d2|c2BA GAGE D4|C2c2 c2E2 D2C2:|
|:c2e2 dedB A4|B2d2 d2A2 B2d2|c2e2 dedB A4|G2c2 c2E2 D2C2:|
|:DCB,A, G,A,B,C D4|D2G2 G2D2 E2G2|DCB,A, G,A,B,D C4|C2c2 c2E2 D2C2:|

